symbols/web/scoreboard/materialsymbolssharp/scoreboard_wght300fill1_48px.svg

<svg xmlns="http://www.w3.org/2000/svg" height="48" width="48"><path d="M28.65 29.5h7.95v-11h-7.95Zm2-2v-7h3.95v7Zm-19.25 2h7.95v-2H13.4v-2.45h5.95V18.5H11.4v2h5.95v2.45H11.4ZM23 21.75h2v-2.4h-2Zm0 7h2v-2.4h-2ZM4.95 38.8V9.35h9.9v-4h2.3v4h13.7v-4h2.3v4h9.9V38.8ZM23 36.15h2V33.4h-2Zm0-21.4h2v-2.8h-2Z"/></svg>

<svg xmlns="http://www.w3.org/2000/svg" height="48" width="48"><path d="M28.65 29.5H36.6V18.5H28.65ZM30.65 27.5V20.5H34.6V27.5ZM11.4 29.5H19.35V27.5H13.4V25.05H19.35V18.5H11.4V20.5H17.35V22.95H11.4ZM23 21.75H25V19.35H23ZM23 28.75H25V26.35H23ZM4.95 38.8V9.35H14.85V5.35H17.15V9.35H30.85V5.35H33.15V9.35H43.05V38.8ZM23 36.15H25V33.4H23ZM23 14.75H25V11.95H23Z"/></svg>
